X: 8334
T: Cotillion, The
R: barndance
M: 4/4
K: Gmajor
V:1
"G"G4 d4|B2 AB "Em"G2 AB|"Am"c2 B2 A2 G2|"D"FGAF D3 D|
"C"E4 "D"F4|"Em"GFGA "C"G2 c2|"G"B2 AG "D"A2 GF|"G"G4 G4:|
|:"D"dedc "G"B2 d2|"D"dedc "G"B2 d2|"Am"e2 "G"d2 "D7"e2 f2|"G"g4 d2 "D"ef|
"G"g2 fe "Em7"d2 cB|"C"e2 dc "G"B2 AB|"Am"c2 "G"B2 "D"A2 "C"G2|"D"F2 EF "D7"D2 D2|
"C"E4 "D"F4|"G"GFGA G2 "D"c2|"G"B2 AG "D"A2 GF|"G"G4"G"G4:|
V:2
B3 B B3 A|G2 FG E2 FG|A2 GE F2 E2|D2 d2 cAFA|
G2 C2 A2 D2|B3 c BGEC|B,2 D2 DFED|CB, A,2 GD [G,2B,2]:|
|:F2 A2 D2 GB|A3 F G2 AB|cABG cAdc|B3 c BAGA|
B2 Ac B2 E2|CDEC DEFG|A2 G2 F2 E2|D2 AF c3 F|
G2 c2 A2 c2|B3 c BDEF|G2 FE DA,B,C|B,2 "C"G2 G,4:|

